X: 528
T: Darıldın mı Gülüm Bana
C: (Anonim)
O: Turkey
F: http://compmusic.upf.edu/node/140
N: rast--kanto--nimsofyan--darildin_mi--
N: makam= rast
N: form= kanto
N: usul= nimsofyan = 2/4
M: 2/4
L: 1/16
K: C _1/4B ^f  
Q: 1/4=90
%%MIDI tuningsystem comma53
B2c2 d2cB  | A2B2 c2BA  | G3A Bcde  | dcBc d4  | 
w:  ARANAĞME  |   |   |   | 
B2c2 d2cB  | A2B2 c2BA  | G3A Bcde  | dcBA G4  | 
w:   |   |   |   | 
B2c2 d2cB  | A2B2 c2BA  | G3A Bcde  | dcBc d4  | 
w:  ARANAĞME  |   |   |   | 
B2c2 d2cB  | A2B2 c2BA  | G3A Bcde  | dcBA G4  | 
w:   |   |   |   | 
G2G2 c2cB  | A2A2 BB3  | G2G2 c2cB  | A2A2 BB3  | \
w:  Da rıl dın  mı   |  gü lüm  ba na    |  Hiç bak mı yor  |  sun  bu  ya na    | 
G2G2 c2cB  | 
w:  Da rıl dın sa   | 
A2A2 B2BA  | G2A2 B2c2  | d2{e}dc BAG2  | \
w:  ba rı şa lım    |  Kum ru  gi bi   |  kok *  la *  şa *  lım    | 
d4 e2e2  | c4 d2d2  | 
w:  Es me rim   |  gü ze lim    | 
B2B2 c2{d}cB  | A2d2 dcBA  | G2d6  | A2B2 dcBA  | G8  | \
w:  Tû tî  dil *  lim   |  ben  ya nı *  yo  |  rum   Ah   |  çok  se vi *  yo  |  rum    | 
d4 e2e2  | 
w:  Es me rim   | 
c4 d2d2  | B2B2 c2{d}cB  | A2d2 dcBA  | \
w:  gü ze lim    |  Tû tî  dil *  lim   |  ben  ya nı *  yo  | 
G2d6  | A2B2 dcBA  | 
w:  rum   Ah   |  çok  se vi *  yo  | 
G8  | B2c2 d2cB  | A2B2 c2BA  | G3A Bcde  | \
w:  rum    |  ARANAĞME  |   |   | 
dcBc d4  | 
w:   | 
B2c2 d2cB  | A2B2 c2BA  | G3A Bcde  | dcBA G4  | 
w:   |   |   |   | 
B2c2 d2cB  | A2B2 c2BA  | G3A Bcde  | dcBc d4  | 
w:  ARANAĞME  |   |   |   | 
B2c2 d2cB  | A2B2 c2BA  | G3A Bcde  | dcBA G4  | 
w:   |   |   |   | 
G2G2 c2cB  | A2A2 BB3  | G2G2 c2cB  | A2A2 BB3  | \
w:  Da rıl dın  mı   |  gü lüm  ba na    |  Hiç bak mı yor  |  sun  bu  ya na    | 
G2G2 c2cB  | 
w:  Da rıl dın sa   | 
A2A2 B2BA  | G2A2 B2c2  | d2{e}dc BAG2  | \
w:  ba rı şa lım    |  Kum ru  gi bi   |  kok *  la *  şa *  lım    | 
d4 e2e2  | c4 d2d2  | 
w:  Es me rim   |  gü ze lim    | 
B2B2 c2{d}cB  | A2d2 dcBA  | G2d6  | A2B2 dcBA  | G8  | \
w:  Tû tî  dil *  lim   |  ben  ya nı *  yo  |  rum   Ah   |  çok  se vi *  yo  |  rum    | 
d4 e2e2  | 
w:  Es me rim   | 
c4 d2d2  | B2B2 c2{d}cB  | A2d2 dcBA  | \
w:  gü ze lim    |  Tû tî  dil *  lim   |  ben  ya nı *  yo  | 
G2d6  | A2B2 dcBA  | 
w:  rum   Ah   |  çok  se vi *  yo  | 
G8  | |


